X:241
T:Anglois
C:W.M. Visser (1817)
O:England
M:2/4
L:1/8
Q:1/4=124
K:G
V:1
(3def  |:g2 b2 |g2 bd' |c'2 bc' |
a4 |b2 c'a |g2 f2 |g2 ba |
g2 d2 |g2 b2 |g2 bd' |c'2 bc' |
a4 |b2 c'a |g2 f2 |(g4 |
|1 g)d  (3def :|2 ga bg || |:d'4 |c'b ag |
a4 |g4 |a2 ab |b2 bd' |
c'2 bc' |a4 |g2 b2 |g2 ab |
c'2 bc' |a4 |b2 c'a |g2 f2 |
|1 g4 |ga bg :|2 (g4 |g2) ||
V:2          %2e stem
(3FGA  |:B2 d2 |B2 d2 |e2 de |
c4 |d2 ed |c2 A2 |B2 dc |
B2 A2 |B2 d2 |B2 d2 |e2 de |
c4 |d2 ed |c2 A2 |(B4 |
|1 B)F  (3FGA :|2 z4 || |:b4 |ag fe |
d3 c|B4 |c2 c2 |d2 d2 |
e2 e2 |f4 |B2 d2 |B2 cd |
e2 de |c4 |d2 ed |c2 A2 |
|1 B4 |z4 :|2 (B4 |B2) ||
